svg/u1f6f8.svg

<svg viewBox="0 0 128 128" xmlns="http://www.w3.org/2000/svg">
  <path d="M106.13,42.46c-0.07,1.32,0.89,2.47,2.24,2.43c1.2-0.04,1.99-1.41,1.95-2.3 s-1.08-1.97-2.14-2.03C107.13,40.48,106.18,41.66,106.13,42.46z" opacity="0.5" fill="#FFFFFF"/>
  <path d="M35.17,4.46c-0.84,0.93-0.57,2.31,0.21,2.82s1.95,0.46,2.52-0.24 c0.51-0.63,0.57-1.89-0.21-2.67C37.02,3.69,35.71,3.86,35.17,4.46z" opacity="0.5" fill="#FFFFFF"/>
  <path d="M113.6,95.23c0,0,1.15-3.3,1.84-3.34c0.69-0.04,1.69,3.3,1.69,3.3s3.42,0.04,3.65,0.54 c0.3,0.64-2.19,2.8-2.19,2.8s0.81,3.23,0.42,3.61c-0.42,0.42-3.38-1.27-3.38-1.27s-3.03,2.11-3.69,1.54 c-0.57-0.5,0.61-3.92,0.61-3.92s-2.84-2.07-2.69-2.65C110.09,95.04,113.6,95.23,113.6,95.23z" fill="#FFFFFF"/>
  <path d="M115.95,36.58c-0.17,2,1.26,3.7,3.31,3.58c1.83-0.11,3.28-1.65,3.07-3.56 c-0.23-2.06-1.57-2.93-3.18-2.99S116.05,35.37,115.95,36.58z" fill="#FFFFFF"/>
  <path d="M25.23,16.26c-0.23,1.76,0.92,3.21,2.75,3.21c1.67,0,2.98-1.6,2.87-3.27c-0.12-1.8-1.4-2.73-2.93-2.6 C26.5,13.72,25.36,15.2,25.23,16.26z" fill="#FFFFFF"/>
  <path d="M81.04,109.17c-0.16,1.87,1.17,3.45,3.09,3.34c1.7-0.1,3.06-1.54,2.86-3.32 c-0.21-1.93-1.46-2.74-2.96-2.79C82.53,106.35,81.14,108.04,81.04,109.17z" opacity="0.5" fill="#FFFFFF"/>
  <radialGradient id="SVGID_1_" cx="50.0214" cy="75.7303" gradientUnits="userSpaceOnUse" r="49.0767">
    <stop offset="0.1706" stop-color="#4CF9FF" stop-opacity="0.7"/>
    <stop offset="1" stop-color="#4CF9FF" stop-opacity="0"/>
  </radialGradient>
  <polygon points="36.85,74.12 15.99,113.18 32.41,126.94 60.82,126.94 70.58,84.77 " fill="url(#SVGID_1_)"/>
  <path d="M19.36,66.25C18.27,65,12.64,55.62,9.83,48.59S4.21,31.87,4.21,31.87l45.16,5l74.07,41.56 c0,0-7.5,4.53-17.5,9.06s-15,5.63-16.09,5.94c-1.09,0.31-15.03,0.8-38.28-8.28C28.74,76.25,19.36,66.25,19.36,66.25z" fill="#848484"/>
  <path d="M16.3,30.12l-9.79-0.92c0,0-1.29,0-2.03,0.83s-0.28,1.85-0.28,1.85s20,18.21,55.94,32.51 c38.69,15.39,63.29,14.06,63.29,14.06s1.08-0.54,1.08-1.63c0-1.09-0.87-1.83-0.87-1.83L62.73,46.71L16.3,30.12z" fill="#9A9A9A"/>
  <path d="M72.02,30.05c-15.98-6.85-27.35-5.47-32.35-5.31c-5,0.16-33.15,4.46-33.15,4.46 s23.47,19.76,55.81,31.95s61.31,13.83,61.31,13.83s-12.56-15.86-20.21-23.83C93.15,40.45,86.24,36.14,72.02,30.05z" fill="#B0B0B0"/>
  <path d="M31.86,27.89c-1.43-0.83-13.07,1.27-13.07,5.05c0,2.81,6.09,6.17,12.03,9.3 c5.21,2.75,14.11,6.49,14.51,4.09c0.47-2.81-9.38-5.45-12.43-10.58C30.66,31.98,33.78,29.02,31.86,27.89z" fill="#E3E3DF"/>
  <path d="M103.38,54.91c-1.89,0.09-2.08,3.37-6.82,4.81S81.7,58.5,80.45,59.97 c-2.41,2.81,24.94,12.19,30.39,7.86C114.89,64.61,105.14,54.83,103.38,54.91z" fill="#9A9A9A"/>
  <path d="M44.81,23.22c0,0-1.48,2.48-1.2,4.25c0.46,2.95,6,8.77,23.63,15.42c18.26,6.88,27.79,5.26,28.99,3.6 c0.87-1.21,0.83-3.88,0.83-3.88L69.82,30.05L44.81,23.22z" fill="#4B7179"/>
  <path d="M44.81,23.22c0,0,12.3-21.77,36.06-12.95c21.52,7.99,16.19,32.34,16.19,32.34s-28.32-6.52-29.87-7.46 C65.63,34.22,44.81,23.22,44.81,23.22z" fill="#64DAC1"/>
  <path d="M68.72,38.73c-22.39-8.74-23.91-15.51-23.91-15.51s8.76-1.64,27.79,5.45 C92.9,36.24,97.06,42.6,97.06,42.6S87.64,46.11,68.72,38.73z" fill="#53B4A0"/>
  <path d="M70.84,29.03c0,0,1.44-3.29,1.11-4.8c-0.55-2.49-2.14-4.91-1.11-7.29c1.48-3.42,4.57-4.3,8.59-2.77 c3.88,1.48,4.7,5.17,3.6,7.57c-1.48,3.23-3.78,2.77-5.45,4.25c-1.42,1.26-2.49,4.71-2.49,4.71L70.84,29.03z" fill="#53B4A0"/>
  <path d="M51.23,27.74c2.41,0.97,4.2-3.92,8.89-8.44c5.57-5.37,13.66-7.13,13.11-8.7 C72.6,8.74,62.49,9.63,55.9,15.32C49.67,20.71,48.55,26.65,51.23,27.74z" fill="#9CFCEC"/>
  <path d="M87.76,39.95c-0.13,1.92,3.65,2.62,5.69,1.02c2.73-2.13,2.5-7.02,0.45-7.23 c-1.92-0.19-1.66,2.43-2.94,3.58S87.86,38.52,87.76,39.95z" fill="#9CFCEC"/>
  <radialGradient id="SVGID_2_" cx="33.9765" cy="66.8888" gradientUnits="userSpaceOnUse" r="9.8817">
    <stop offset="0" stop-color="#53B4A0"/>
    <stop offset="1" stop-color="#53B4A0" stop-opacity="0"/>
  </radialGradient>
  <ellipse cx="33.98" cy="66.89" rx="9.78" ry="9.99" fill="url(#SVGID_2_)"/>
  <radialGradient id="SVGID_3_" cx="54.8992" cy="77.6303" gradientTransform="matrix(1 0 0 0.9422 0 4.4905)" gradientUnits="userSpaceOnUse" r="10.8117">
    <stop offset="0" stop-color="#53B4A0"/>
    <stop offset="1" stop-color="#53B4A0" stop-opacity="0"/>
  </radialGradient>
  <ellipse cx="54.9" cy="77.63" rx="11.02" ry="10.6" fill="url(#SVGID_3_)"/>
  <radialGradient id="SVGID_4_" cx="76.2886" cy="83.2814" gradientTransform="matrix(0.9468 0 0 0.9216 3.5087 7.294)" gradientUnits="userSpaceOnUse" r="9.8817">
    <stop offset="0" stop-color="#53B4A0"/>
    <stop offset="1" stop-color="#53B4A0" stop-opacity="0"/>
  </radialGradient>
  <ellipse cx="75.74" cy="84.05" rx="9.26" ry="9.2" fill="url(#SVGID_4_)"/>
  <radialGradient id="SVGID_5_" cx="96.0752" cy="85.1959" gradientTransform="matrix(0.9598 -0.2807 0.2642 0.9033 -18.6815 35.0906)" gradientUnits="userSpaceOnUse" r="8.9713">
    <stop offset="0" stop-color="#53B4A0"/>
    <stop offset="1" stop-color="#53B4A0" stop-opacity="0"/>
  </radialGradient>
  <path d="M104.76,82.53c1.35,4.63-1.45,9.52-6.27,10.93s-9.82-1.2-11.17-5.83 c-1.35-4.63,1.45-9.52,6.27-10.93C98.4,75.29,103.4,77.9,104.76,82.53z" fill="url(#SVGID_5_)"/>
  <radialGradient id="SVGID_6_" cx="20.3014" cy="54.0586" gradientUnits="userSpaceOnUse" r="10.3817">
    <stop offset="0" stop-color="#53B4A0" stop-opacity="0.7"/>
    <stop offset="1" stop-color="#53B4A0" stop-opacity="0"/>
  </radialGradient>
  <ellipse cx="20.3" cy="54.06" rx="9.78" ry="9.99" fill="none" stroke="url(#SVGID_6_)" stroke-miterlimit="10"/>
  <path d="M31.43,64.13c-1.76,1.86-1.72,4.82,0.47,6.44c2.12,1.57,4.48,0.63,5.57-0.71s1.26-4.24-0.47-5.73 C35.28,62.64,32.76,62.72,31.43,64.13z" fill="#53B4A0"/>
  <path d="M32.76,65.94c-0.74,0.8-0.83,2,0.16,2.91c0.94,0.86,2.43,0.55,2.98-0.24 c0.67-0.96,0.47-2.36-0.39-2.91C34.65,65.15,33.63,64.99,32.76,65.94z" fill="#9CFCEC"/>
  <path d="M50.2,76.69c-0.94,2.28,0.63,4.79,3.53,5.5c2.54,0.62,4.87-0.63,5.42-2.91 c0.51-2.13-0.59-4.61-3.3-5.26C53.57,73.47,51.24,74.17,50.2,76.69z" fill="#53B4A0"/>
  <path d="M53.18,76.58c-0.74,0.79-0.83,1.98,0.16,2.87c0.94,0.85,2.43,0.54,2.98-0.23 c0.67-0.94,0.47-2.33-0.39-2.87C55.06,75.8,54.04,75.65,53.18,76.58z" fill="#9CFCEC"/>
  <path d="M73.17,81.03c-1.82,1.6-1.82,4.46,0.06,6.3c1.64,1.6,4.02,1.49,5.54-0.27c1.42-1.65,1.76-4.29,0.01-6 C77.3,79.62,75.19,79.26,73.17,81.03z" fill="#53B4A0"/>
  <path d="M77.27,82.65c-0.76-0.78-1.92-0.91-2.83,0.07c-0.87,0.94-0.61,2.49,0.13,3.08 c0.91,0.72,2.28,0.56,2.84-0.32C77.98,84.62,78.16,83.57,77.27,82.65z" fill="#9CFCEC"/>
  <path d="M97.34,80.83c-2.37-0.42-4.65,1.28-4.96,3.8c-0.27,2.2,1.27,3.93,3.59,4.02 c2.17,0.09,4.47-1.22,4.76-3.56C100.96,83.11,99.97,81.29,97.34,80.83z" fill="#53B4A0"/>
  <path d="M94.49,84.65c-0.03,1.1,0.69,2.04,2.04,2.02c1.3-0.02,2.23-1.28,2.14-2.24 c-0.12-1.17-1.19-2.06-2.22-1.86S94.53,83.36,94.49,84.65z" fill="#9CFCEC"/>
  <radialGradient id="SVGID_7_" cx="19.8458" cy="54.9031" gradientTransform="matrix(0.5456 -0.838 0.838 0.5456 -36.6866 41.2109)" gradientUnits="userSpaceOnUse" r="9.8817">
    <stop offset="0" stop-color="#53B4A0"/>
    <stop offset="1" stop-color="#53B4A0" stop-opacity="0"/>
  </radialGradient>
  <path d="M25.49,46.34c4.62,3.01,5.98,9.12,3.03,13.64s-9.08,5.75-13.7,2.74 c-4.62-3.01-5.98-9.12-3.03-13.64S20.86,43.33,25.49,46.34z" fill="url(#SVGID_7_)"/>
  <path d="M18.79,50.62c-2.36,0.98-3.12,3.32-2.2,5.57c0.86,2.12,3.06,3.06,5.18,2.36s3.53-3.14,2.36-5.65 C22.98,50.45,20.67,49.84,18.79,50.62z" fill="#53B4A0"/>
  <path d="M19.15,52.63c-0.99,0.64-1.2,1.98-0.49,3.04c0.71,1.06,2.19,0.99,2.97,0.35 c0.78-0.64,0.99-2.12,0.21-3.04C21.06,52.06,19.95,52.11,19.15,52.63z" fill="#9CFCEC"/>
</svg>

<svg viewBox="0 0 128 128" xmlns="http://www.w3.org/2000/svg">
  <defs>
    <radialGradient id="SVGID_1_" cx="50.0214" cy="75.7303" gradientUnits="userSpaceOnUse" r="49.0767">
      <stop offset="0.1706" stop-color="#4CF9FF" stop-opacity="0.7"/>
      <stop offset="1" stop-color="#4CF9FF" stop-opacity="0"/>
    </radialGradient>
    <radialGradient id="SVGID_2_" cx="33.9765" cy="66.8888" gradientUnits="userSpaceOnUse" r="9.8817">
      <stop offset="0" stop-color="#53B4A0"/>
      <stop offset="1" stop-color="#53B4A0" stop-opacity="0"/>
    </radialGradient>
    <radialGradient id="SVGID_3_" cx="54.8992" cy="82.396273" gradientTransform="matrix(1 0 0 0.9422 0 0)" gradientUnits="userSpaceOnUse" r="10.8117">
      <stop offset="0" stop-color="#53B4A0"/>
      <stop offset="1" stop-color="#53B4A0" stop-opacity="0"/>
    </radialGradient>
    <radialGradient id="SVGID_4_" cx="79.994451" cy="91.195897" gradientTransform="matrix(0.9468 0 0 0.9216 0 0)" gradientUnits="userSpaceOnUse" r="9.8817">
      <stop offset="0" stop-color="#53B4A0"/>
      <stop offset="1" stop-color="#53B4A0" stop-opacity="0"/>
    </radialGradient>
    <radialGradient id="SVGID_5_" cx="68.294311" cy="115.41012" gradientTransform="matrix(0.9598 -0.2807 0.2642 0.9033 0 0)" gradientUnits="userSpaceOnUse" r="8.9713">
      <stop offset="0" stop-color="#53B4A0"/>
      <stop offset="1" stop-color="#53B4A0" stop-opacity="0"/>
    </radialGradient>
    <radialGradient id="SVGID_6_" cx="20.3014" cy="54.0586" gradientUnits="userSpaceOnUse" r="10.3817">
      <stop offset="0" stop-color="#53B4A0" stop-opacity="0.7"/>
      <stop offset="1" stop-color="#53B4A0" stop-opacity="0"/>
    </radialGradient>
    <radialGradient id="SVGID_7_" cx="-34.709324" cy="46.643763" gradientTransform="matrix(0.5456 -0.838 0.838 0.5456 0 0)" gradientUnits="userSpaceOnUse" r="9.8817">
      <stop offset="0" stop-color="#53B4A0"/>
      <stop offset="1" stop-color="#53B4A0" stop-opacity="0"/>
    </radialGradient>
  </defs>
  <path d="M106.13,42.46 C106.06,43.78 107.02,44.93 108.37,44.89 C109.57,44.85 110.36,43.48 110.32,42.59 C110.28,41.7 109.24,40.62 108.18,40.56 C107.13,40.48 106.18,41.66 106.13,42.46 Z" fill="#FFFFFF" opacity="0.5"/>
  <path d="M35.17,4.46 C34.33,5.39 34.6,6.77 35.38,7.28 C36.16,7.79 37.33,7.74 37.9,7.04 C38.41,6.41 38.47,5.15 37.69,4.37 C37.02,3.69 35.71,3.86 35.17,4.46 Z" fill="#FFFFFF" opacity="0.5"/>
  <path d="M113.6,95.23 C113.6,95.23 114.75,91.93 115.44,91.89 C116.13,91.85 117.13,95.19 117.13,95.19 C117.13,95.19 120.55,95.23 120.78,95.73 C121.08,96.37 118.59,98.53 118.59,98.53 C118.59,98.53 119.4,101.76 119.01,102.14 C118.59,102.56 115.63,100.87 115.63,100.87 C115.63,100.87 112.6,102.98 111.94,102.41 C111.37,101.91 112.55,98.49 112.55,98.49 C112.55,98.49 109.71,96.42 109.86,95.84 C110.09,95.04 113.6,95.23 113.6,95.23 Z" fill="#FFFFFF"/>
  <path d="M115.95,36.58 C115.78,38.58 117.21,40.28 119.26,40.16 C121.09,40.05 122.54,38.51 122.33,36.6 C122.1,34.54 120.76,33.67 119.15,33.61 C117.54,33.55 116.05,35.37 115.95,36.58 Z" fill="#FFFFFF"/>
  <path d="M25.23,16.26 C25,18.02 26.15,19.47 27.98,19.47 C29.65,19.47 30.96,17.87 30.85,16.2 C30.73,14.4 29.45,13.47 27.92,13.6 C26.5,13.72 25.36,15.2 25.23,16.26 Z" fill="#FFFFFF"/>
  <path d="M81.04,109.17 C80.88,111.04 82.21,112.62 84.13,112.51 C85.83,112.41 87.19,110.97 86.99,109.19 C86.78,107.26 85.53,106.45 84.03,106.4 C82.53,106.35 81.14,108.04 81.04,109.17 Z" fill="#FFFFFF" opacity="0.5"/>
  <path d="M36.85,74.12 L15.99,113.18 L32.41,126.94 L60.82,126.94 L70.58,84.77 Z" fill="url(#SVGID_1_)"/>
  <path d="M19.36,66.25 C18.27,65 12.64,55.62 9.83,48.59 C7.02,41.56 4.21,31.87 4.21,31.87 L49.37,36.87 L123.44,78.43 C123.44,78.43 115.94,82.96 105.94,87.49 C95.94,92.02 90.94,93.12 89.85,93.43 C88.76,93.74 74.82,94.23 51.57,85.15 C28.74,76.25 19.36,66.25 19.36,66.25 Z" fill="#848484"/>
  <path d="M16.3,30.12 L6.51,29.2 C6.51,29.2 5.22,29.2 4.48,30.03 C3.74,30.86 4.2,31.88 4.2,31.88 C4.2,31.88 24.2,50.09 60.14,64.39 C98.83,79.78 123.43,78.45 123.43,78.45 C123.43,78.45 124.51,77.91 124.51,76.82 C124.51,75.73 123.64,74.99 123.64,74.99 L62.73,46.71 L16.3,30.12 Z" fill="#9A9A9A"/>
  <path d="M72.02,30.05 C56.04,23.2 44.67,24.58 39.67,24.74 C34.67,24.9 6.52,29.2 6.52,29.2 C6.52,29.2 29.99,48.96 62.33,61.15 C94.67,73.34 123.64,74.98 123.64,74.98 C123.64,74.98 111.08,59.12 103.43,51.15 C93.15,40.45 86.24,36.14 72.02,30.05 Z" fill="#B0B0B0"/>
  <path d="M31.86,27.89 C30.43,27.06 18.79,29.16 18.79,32.94 C18.79,35.75 24.88,39.11 30.82,42.24 C36.03,44.99 44.93,48.73 45.33,46.33 C45.8,43.52 35.95,40.88 32.9,35.75 C30.66,31.98 33.78,29.02 31.86,27.89 Z" fill="#E3E3DF"/>
  <path d="M103.38,54.91 C101.49,55 101.3,58.28 96.56,59.72 C91.82,61.16 81.7,58.5 80.45,59.97 C78.04,62.78 105.39,72.16 110.84,67.83 C114.89,64.61 105.14,54.83 103.38,54.91 Z" fill="#9A9A9A"/>
  <path d="M44.81,23.22 C44.81,23.22 43.33,25.7 43.61,27.47 C44.07,30.42 49.61,36.24 67.24,42.89 C85.5,49.77 95.03,48.15 96.23,46.49 C97.1,45.28 97.06,42.61 97.06,42.61 L69.82,30.05 L44.81,23.22 Z" fill="#4B7179"/>
  <path d="M44.81,23.22 C44.81,23.22 57.11,1.45 80.87,10.27 C102.39,18.26 97.06,42.61 97.06,42.61 C97.06,42.61 68.74,36.09 67.19,35.15 C65.63,34.22 44.81,23.22 44.81,23.22 Z" fill="#64DAC1"/>
  <path d="M68.72,38.73 C46.33,29.99 44.81,23.22 44.81,23.22 C44.81,23.22 53.57,21.58 72.6,28.67 C92.9,36.24 97.06,42.6 97.06,42.6 C97.06,42.6 87.64,46.11 68.72,38.73 Z" fill="#53B4A0"/>
  <path d="M70.84,29.03 C70.84,29.03 72.28,25.74 71.95,24.23 C71.4,21.74 69.81,19.32 70.84,16.94 C72.32,13.52 75.41,12.64 79.43,14.17 C83.31,15.65 84.13,19.34 83.03,21.74 C81.55,24.97 79.25,24.51 77.58,25.99 C76.16,27.25 75.09,30.7 75.09,30.7 L70.84,29.03 Z" fill="#53B4A0"/>
  <path d="M51.23,27.74 C53.64,28.71 55.43,23.82 60.12,19.3 C65.69,13.93 73.78,12.17 73.23,10.6 C72.6,8.74 62.49,9.63 55.9,15.32 C49.67,20.71 48.55,26.65 51.23,27.74 Z" fill="#9CFCEC"/>
  <path d="M87.76,39.95 C87.63,41.87 91.41,42.57 93.45,40.97 C96.18,38.84 95.95,33.95 93.9,33.74 C91.98,33.55 92.24,36.17 90.96,37.32 C89.68,38.47 87.86,38.52 87.76,39.95 Z" fill="#9CFCEC"/>
  <path d="M43.76,66.89 A9.78 9.99 0 1 1 24.2,66.89 A9.78 9.99 0 1 1 43.76,66.89 Z" fill="url(#SVGID_2_)"/>
  <path d="M65.92,77.63 A11.02 10.6 0 1 1 43.88,77.63 A11.02 10.6 0 1 1 65.92,77.63 Z" fill="url(#SVGID_3_)"/>
  <path d="M85,84.05 A9.26 9.2 0 1 1 66.48,84.05 A9.26 9.2 0 1 1 85,84.05 Z" fill="url(#SVGID_4_)"/>
  <path d="M104.76,82.53 C106.11,87.16 103.31,92.05 98.49,93.46 C93.67,94.87 88.67,92.26 87.32,87.63 C85.97,83 88.77,78.11 93.59,76.7 C98.4,75.29 103.4,77.9 104.76,82.53 Z" fill="url(#SVGID_5_)"/>
  <path d="M30.58,54.06 Q30.58,58.402 27.573,61.474 Q24.561,64.55 20.3,64.55 Q16.039,64.55 13.027,61.474 Q10.02,58.402 10.02,54.06 Q10.02,49.718 13.027,46.646 Q16.039,43.57 20.3,43.57 Q24.561,43.57 27.573,46.646 Q30.58,49.718 30.58,54.06 Z M29.58,54.06 Q29.58,50.126 26.858,47.346 Q24.141,44.57 20.3,44.57 Q16.459,44.57 13.742,47.346 Q11.02,50.126 11.02,54.06 Q11.02,57.994 13.742,60.774 Q16.459,63.55 20.3,63.55 Q24.141,63.55 26.858,60.774 Q29.58,57.994 29.58,54.06 Z" fill="url(#SVGID_6_)"/>
  <path d="M31.43,64.13 C29.67,65.99 29.71,68.95 31.9,70.57 C34.02,72.14 36.38,71.2 37.47,69.86 C38.56,68.52 38.73,65.62 37,64.13 C35.28,62.64 32.76,62.72 31.43,64.13 Z" fill="#53B4A0"/>
  <path d="M32.76,65.94 C32.02,66.74 31.93,67.94 32.92,68.85 C33.86,69.71 35.35,69.4 35.9,68.61 C36.57,67.65 36.37,66.25 35.51,65.7 C34.65,65.15 33.63,64.99 32.76,65.94 Z" fill="#9CFCEC"/>
  <path d="M50.2,76.69 C49.26,78.97 50.83,81.48 53.73,82.19 C56.27,82.81 58.6,81.56 59.15,79.28 C59.66,77.15 58.56,74.67 55.85,74.02 C53.57,73.47 51.24,74.17 50.2,76.69 Z" fill="#53B4A0"/>
  <path d="M53.18,76.58 C52.44,77.37 52.35,78.56 53.34,79.45 C54.28,80.3 55.77,79.99 56.32,79.22 C56.99,78.28 56.79,76.89 55.93,76.35 C55.06,75.8 54.04,75.65 53.18,76.58 Z" fill="#9CFCEC"/>
  <path d="M73.17,81.03 C71.35,82.63 71.35,85.49 73.23,87.33 C74.87,88.93 77.25,88.82 78.77,87.06 C80.19,85.41 80.53,82.77 78.78,81.06 C77.3,79.62 75.19,79.26 73.17,81.03 Z" fill="#53B4A0"/>
  <path d="M77.27,82.65 C76.51,81.87 75.35,81.74 74.44,82.72 C73.57,83.66 73.83,85.21 74.57,85.8 C75.48,86.52 76.85,86.36 77.41,85.48 C77.98,84.62 78.16,83.57 77.27,82.65 Z" fill="#9CFCEC"/>
  <path d="M97.34,80.83 C94.97,80.41 92.69,82.11 92.38,84.63 C92.11,86.83 93.65,88.56 95.97,88.65 C98.14,88.74 100.44,87.43 100.73,85.09 C100.96,83.11 99.97,81.29 97.34,80.83 Z" fill="#53B4A0"/>
  <path d="M94.49,84.65 C94.46,85.75 95.18,86.69 96.53,86.67 C97.83,86.65 98.76,85.39 98.67,84.43 C98.55,83.26 97.48,82.37 96.45,82.57 C95.42,82.77 94.53,83.36 94.49,84.65 Z" fill="#9CFCEC"/>
  <path d="M25.49,46.34 C30.11,49.35 31.47,55.46 28.52,59.98 C25.57,64.5 19.44,65.73 14.82,62.72 C10.2,59.71 8.84,53.6 11.79,49.08 C14.74,44.56 20.86,43.33 25.49,46.34 Z" fill="url(#SVGID_7_)"/>
  <path d="M18.79,50.62 C16.43,51.6 15.67,53.94 16.59,56.19 C17.45,58.31 19.65,59.25 21.77,58.55 C23.89,57.85 25.3,55.41 24.13,52.9 C22.98,50.45 20.67,49.84 18.79,50.62 Z" fill="#53B4A0"/>
  <path d="M19.15,52.63 C18.16,53.27 17.95,54.61 18.66,55.67 C19.37,56.73 20.85,56.66 21.63,56.02 C22.41,55.38 22.62,53.9 21.84,52.98 C21.06,52.06 19.95,52.11 19.15,52.63 Z" fill="#9CFCEC"/>
</svg>
